!!!!SEGMENT: Snf0227-Nativitas_tua_Dei_genitrix_virgo
!!!id: Snf0227
!!!AGN: Motet
!!!SCT: Edwards, Gasch, Tröster (2022)
!!!voices: 4
!!!COM: Ludwig Senfl
!!!OTL: Nativitas tua, Dei genitrix virgo
**kern	**text	**kern	**text	**kern	**text	**kern	**text
*part4	*part4	*part3	*part3	*part2	*part2	*part1	*part1
*staff4	*staff4	*staff3	*staff3	*staff2	*staff2	*staff1	*staff1
*I"Bassus	*	*I"Tenor	*	*I"Altus	*	*I"Superius	*
*I'B	*	*I'T	*	*I'A	*	*I'S	*
*clefF4	*	*clefGv2	*	*clefGv2	*	*clefG2	*
*	*	*	*	*	*	*	*
*k[]	*	*k[]	*	*k[]	*	*k[]	*
*	*	*	*	*	*	*	*
*M2/1	*	*M2/1	*	*M2/1	*	*M2/1	*
*met(C|)	*	*met(C|)	*	*met(C|)	*	*met(C|)	*
!!section: Prima pars: Nativitas tua, Dei genitrix virgo
!!!OMD: Prima pars: Nativitas tua, Dei genitrix virgo
1D	Na-	1D	Na-	1A	Na-	0d	Na-
2D	-ti-	2F	-ti-	2A	-ti-	.	.
2D	-vi-	2F	-vi-	2A	-vi-	.	.
=1	=1	=1	=1	=1	=1	=1	=1
1GG	-tas	1G	-tas	1B	-tas	0d	-ti-
1D	tu-	[1F	tu-	[1A	tu-	.	.
=2	=2	=2	=2	=2	=2	=2	=2
0AA	-a,	2F]	.	1A]	.	0c	.
.	.	4E	.	.	.	.	.
.	.	4D	.	.	.	.	.
.	.	1E	.	[1A	-a,	.	.
=3	=3	=3	=3	=3	=3	=3	=3
2r	.	2D	-a,	1A]	.	0f	-vi-
2D	[na-	2A	na-	.	.	.	.
2D	-ti-	2A	-ti-	2r	.	.	.
2D	-vi-	2A	-vi-	2d	na-	.	.
=4	=4	=4	=4	=4	=4	=4	=4
1GG	-tas	2.B	-tas	2d	-ti-	1g	-tas
.	.	.	.	2d	-vi-	.	.
.	.	4G	.	.	.	.	.
1D	tu-	2A	.	2d	-tas	1f	tu-
.	.	2B	tu-	2d	tu-	.	.
=5	=5	=5	=5	=5	=5	=5	=5
1AA	-a,]	1c	-a,	1e	-a,	1a	.
2r	.	2r	.	2r	.	[1a	-a,
2A	na-	2c	[na-	2e	na-	.	.
=6	=6	=6	=6	=6	=6	=6	=6
2A	-ti-	2c	-ti-	2e	-ti-	1a]	.
2A	-vi-	2c	-vi-	2e	-vi-	.	.
1D	-tas	1d	-tas	1f	-tas	[1a	De-
=7	=7	=7	=7	=7	=7	=7	=7
1A	tu-	1c	tu-	1e	tu-	1a]	.
1E	-a,	1B	-a,]	1e	-a,	1g	-i
=8	=8	=8	=8	=8	=8	=8	=8
0A	De-	2r	.	1r	.	1e	ge-
.	.	1c	De-	.	.	.	.
.	.	.	.	1c	De-	1f	.
.	.	2A	-i	.	.	.	.
=9	=9	=9	=9	=9	=9	=9	=9
1G	-i	1B	ge-	1d	-i	0g	-ni-
1E	ge-	1B	-ni-	1e	ge-	.	.
=10	=10	=10	=10	=10	=10	=10	=10
1F	.	1A	-trix	1c	-ni-	1f	-trix
[1G	-ni-	1r	.	1B	-trix	1e	.
=11	=11	=11	=11	=11	=11	=11	=11
1G]	.	2r	.	2r	.	1d	vir-
.	.	2G	vir-	2B	vir-	.	.
1F	-trix	2D	.	2A	.	1d	-go,
.	.	[2A	.	[2d	.	.	.
=12	=12	=12	=12	=12	=12	=12	=12
1E	.	2A]	.	2d]	.	0r	.
.	.	2G	.	2c#i	.	.	.
1D	vir-	1A	-go,	1d	-go,	.	.
=13	=13	=13	=13	=13	=13	=13	=13
2D	-go,	2r	.	0r	.	0d	gau-
1G	gau-	1B	gau-	.	.	.	.
2D	-di-	2A	-di-	.	.	.	.
=14	=14	=14	=14	=14	=14	=14	=14
0D	-um	1A	-um,	2r	.	0f	-di-
.	.	.	.	1d	gau-	.	.
.	.	2r	.	.	.	.	.
.	.	[2F	gau-	2A	-di-	.	.
=15	=15	=15	=15	=15	=15	=15	=15
0r	.	2F]	.	2A	-um,	0d	-um
.	.	1G	.	1B	gau-	.	.
.	.	2D	-di-	2A	-di-	.	.
=16	=16	=16	=16	=16	=16	=16	=16
2r	.	4D	-um	2A	-um	0d	an-
.	.	4E	.	.	.	.	.
2D	an-	4F	.	2f	an-	.	.
.	.	4G	.	.	.	.	.
2D	-nun-	4A	.	2f	-nun-	.	.
.	.	4D	.	.	.	.	.
2D	-ti-	2B	.	2f	-ti-	.	.
=17	=17	=17	=17	=17	=17	=17	=17
2.F	-a-	1A	.	1f	-a-	0c	.
4G	.	.	.	.	.	.	.
1A	.	1r	.	1e	.	.	.
=18	=18	=18	=18	=18	=18	=18	=18
0D	-vit,	2r	.	2d	-vit,	[0f	-nun-
.	.	2F	an-	2A	an-	.	.
.	.	2F	-nun-	2A	-nun-	.	.
.	.	2F	-ti-	2A	-ti-	.	.
=19	=19	=19	=19	=19	=19	=19	=19
0r	.	1F	-a-	2.c	-a-	1f]	.
.	.	.	.	4d	.	.	.
.	.	1E	.	1e	.	1g	-ti-
=20	=20	=20	=20	=20	=20	=20	=20
2r	.	2D	-vit,	2A	-vit,	1f	-a-
2D	[an-	2d	[an-	2f	[an-	.	.
2D	-nun-	2d	-nun-	2f	-nun-	1a	.
2D	-ti-	2d	-ti-	2f	-ti-	.	.
=21	=21	=21	=21	=21	=21	=21	=21
2.F	-a-	2A	-a-	1f	-a-	[0a	-vit
.	.	2d	.	.	.	.	.
4G	.	.	.	.	.	.	.
1A	.	4c	-vit,]	1e	.	.	.
.	.	4B	.	.	.	.	.
.	.	4A	.	.	.	.	.
.	.	4G	.	.	.	.	.
=22	=22	=22	=22	=22	=22	=22	=22
2D	-vit,]	2F	.	2d	-vit,	0a]	.
2AA	an-	2A	an-	2c	an-	.	.
2AA	-nun-	2A	-nun-	2c	-nun-	.	.
2AA	-ti-	2A	-ti-	2c	-ti-	.	.
=23	=23	=23	=23	=23	=23	=23	=23
2.C	-a-	2.E	-a-	1c	-a-	0g	.
4D	.	4F	.	.	.	.	.
1E	.	4G	.	1B	.	.	.
.	.	4A	.	.	.	.	.
.	.	2B	.	.	.	.	.
=24	=24	=24	=24	=24	=24	=24	=24
0AA	-vit,	2c	.	0A	-vit,]	1f	.
.	.	2.d	.	.	.	.	.
.	.	.	.	.	.	1e	.
.	.	4c#i	.	.	.	.	.
.	.	4c#i	.	.	.	.	.
.	.	8BL	.	.	.	.	.
.	.	8c#iJ	.	.	.	.	.
=25	=25	=25	=25	=25	=25	=25	=25
2r	.	2.d	.	1r	.	0d	.
2BB-X	[an-	.	.	.	.	.	.
.	.	4D	.	.	.	.	.
2BB-i	-nun-	1D	-vit	2r	.	.	.
2BB-i	-ti]-	.	.	2F	an-	.	.
=26	=26	=26	=26	=26	=26	=26	=26
1BB-X	-a-	1r	.	2F	-nun-	1r	.
.	.	.	.	2F	-ti-	.	.
1AA	.	1A	u-	1F	-a-	1f	u-
=27	=27	=27	=27	=27	=27	=27	=27
0GG	-vit	2.B	-ni-	1E	.	[0g	-ni-
.	.	4c	.	.	.	.	.
.	.	2d	.	2D	-vit	.	.
.	.	2e	-ver-	2G	u-	.	.
=28	=28	=28	=28	=28	=28	=28	=28
1r	.	2d	-so	2B	-ni-	0g]	.
.	.	1c	mun-	2c	-ver-	.	.
2r	.	.	.	1d	-so,	.	.
2G	u-	2B	.	.	.	.	.
=29	=29	=29	=29	=29	=29	=29	=29
2A	-ni-	2.c	.	2r	.	[0e	-ver-
4AA	-ver-	.	.	1c	u-	.	.
4BB	.	4B	.	.	.	.	.
4C	.	2A	.	.	.	.	.
4D	.	.	.	.	.	.	.
4E	.	2G	.	2B	-ni-	.	.
4F	.	.	.	.	.	.	.
=30	=30	=30	=30	=30	=30	=30	=30
2G	.	2E	.	2G	-ver-	0e]	.
1A	.	2A	.	2c	-so	.	.
.	.	1E	-do,	2.B	mun-	.	.
2G#i	.	.	.	.	.	.	.
.	.	.	.	4c	.	.	.
=31	=31	=31	=31	=31	=31	=31	=31
1A	-so	2D	mun-	2d	.	1f	-so
.	.	2F	.	2A	.	.	.
2r	.	2G	.	2B	.	1e	.
2AA	mun-	2A	.	2c	.	.	.
=32	=32	=32	=32	=32	=32	=32	=32
2BB	.	2D	.	2d	.	0d	mun-
4GG	.	1G	.	1B	.	.	.
4AA	.	.	.	.	.	.	.
4BB	.	.	.	.	.	.	.
4C	.	.	.	.	.	.	.
4D	.	2F	.	2A	.	.	.
4E	.	.	.	.	.	.	.
=33	=33	=33	=33	=33	=33	=33	=33
2F	.	2D	.	2d	.	[0d	-do;
1G	.	2G	.	2B	.	.	.
.	.	1D	-do;	1A	-do;	.	.
2F#i	.	.	.	.	.	.	.
=34	=34	=34	=34	=34	=34	=34	=34
1G	-do;	1r	.	2r	.	0d]	.
.	.	.	.	2B-X	ex	.	.
2r	.	1d	ex	2G	te	.	.
[2G	ex	.	.	[2B-i	e-	.	.
=35	=35	=35	=35	=35	=35	=35	=35
2G]	.	1d	te	2B-]	.	1r	.
4F	te	.	.	4A	.	.	.
4E	.	.	.	4G	.	.	.
4D	.	1d	e-	1A	-nim	1a	ex
4E	.	.	.	.	.	.	.
4F	.	.	.	.	.	.	.
4G	.	.	.	.	.	.	.
=36	=36	=36	=36	=36	=36	=36	=36
2A	.	[0c	-nim	2r	.	1a	te
2AA	e-	.	.	2.A	or-	.	.
4FF	-nim	.	.	.	.	1a	e-
4GG	.	.	.	4B	-tus	.	.
4AA	.	.	.	4c	.	.	.
4BB	.	.	.	4d	.	.	.
=37	=37	=37	=37	=37	=37	=37	=37
1C	.	0c]	.	[0e	est,	1g	-nim
[1C	or-	.	.	.	.	1g	or-
=38	=38	=38	=38	=38	=38	=38	=38
2C]	.	1c	or-	0e]	.	1g	-tus
2C	-tus	.	.	.	.	.	.
1AA	est,	1c	-tus	.	.	1a	.
=39	=39	=39	=39	=39	=39	=39	=39
1r	.	1d	.	0f	.	1a	est
1D	ex	1d	est,	.	.	2r	.
.	.	.	.	.	.	[2a	Sol
=40	=40	=40	=40	=40	=40	=40	=40
1D	te	1A	ex	1d	or-	2a]	.
.	.	.	.	.	.	2f	iu-
1D	e-	1A	te	1f	-tus	2.a	-sti-
.	.	.	.	.	.	4b	.
=41	=41	=41	=41	=41	=41	=41	=41
0C	-nim	1A	e-	1.e	est	1.cc	.
.	.	1G	-nim	.	.	.	.
.	.	.	.	4d	.	4b	.
.	.	.	.	4c	.	4a	.
=42	=42	=42	=42	=42	=42	=42	=42
1r	.	1G	or-	1d	.	4b	.
.	.	.	.	.	.	4a	.
.	.	.	.	.	.	4g	.
.	.	.	.	.	.	4f	.
1C	or-	1G	-tus	2c	Sol	4e	.
.	.	.	.	.	.	4c	.
.	.	.	.	2e	iu-	[2cc	.
=43	=43	=43	=43	=43	=43	=43	=43
1C	-tus	1A	.	1e	-sti-	4cc]	.
.	.	.	.	.	.	4b	.
.	.	.	.	.	.	4a	.
.	.	.	.	.	.	4g	.
1D	.	1A	est	2d	.	2f	.
.	.	.	.	[2f	.	[2a	.
=44	=44	=44	=44	=44	=44	=44	=44
1D	est	0A	Sol	4f]	.	4a]	.
.	.	.	.	4e	.	4g	.
.	.	.	.	2d	.	4f	.
.	.	.	.	.	.	4e	.
2r	.	.	.	2c	.	1f	-ti-
2D	Sol	.	.	4d	.	.	.
.	.	.	.	4c	.	.	.
=45	=45	=45	=45	=45	=45	=45	=45
2GG	iu-	0G	iu-	4B	.	1g	-ae,
.	.	.	.	4A	.	.	.
1C	-sti-	.	.	4G	.	.	.
.	.	.	.	4F	.	.	.
.	.	.	.	2E	.	2r	.
2BB	.	.	.	2D	.	2b	Sol
=46	=46	=46	=46	=46	=46	=46	=46
1AA	-ti-	0c	.	4A	-ti-	2e	iu-
.	.	.	.	4B	.	.	.
.	.	.	.	4c	.	1a	-sti-
.	.	.	.	4d	.	.	.
1C	.	.	.	1e	-ae,	.	.
.	.	.	.	.	.	2g	.
=47	=47	=47	=47	=47	=47	=47	=47
1D	-ae,	0A	-sti-	2r	.	1f	.
.	.	.	.	2d	Sol	.	.
2r	.	.	.	2c	iu-	2e	.
2D	[Sol	.	.	2d	-sti-	2f	-ti-
=48	=48	=48	=48	=48	=48	=48	=48
2GG	iu-	0G	-ti-	2D	-ti-	1g	-ae,
1C	-sti-	.	.	1E	.	.	.
.	.	.	.	.	.	2r	.
2BB	-ti-	.	.	4D	.	2g	Sol
.	.	.	.	4E	.	.	.
=49	=49	=49	=49	=49	=49	=49	=49
0AA	-ae,	0A	.	4F	.	2c	iu-
.	.	.	.	4G	.	.	.
.	.	.	.	4A	.	1f	-sti-
.	.	.	.	4B	.	.	.
.	.	.	.	2c	.	.	.
.	.	.	.	2c	-ae,	2e	.
=50	=50	=50	=50	=50	=50	=50	=50
1.D	Sol	1.A	-ae:	1F	.	2.d	.
.	.	.	.	.	.	4e	.
.	.	.	.	2r	.	2f	.
2GG	iu-	2G	.	2B	Sol	2g	.
=51	=51	=51	=51	=51	=51	=51	=51
2AA	-sti-	2F	.	2A	iu-	2c	-ti-
2BB	-ti-	2D	.	2G	-sti-	1d	.
1AA	-ae,]	1E	.	1A	-ti-	.	.
.	.	.	.	.	.	2c#i	.
=52	=52	=52	=52	=52	=52	=52	=52
1.A	Sol	0D	.	1F	.	1d	-ae,
.	.	.	.	2D	-ae,	2r	.
2D	iu-	.	.	2d	[Sol	2f	iu-
=53	=53	=53	=53	=53	=53	=53	=53
2E	-sti-	0r	.	2c	iu-	2g	-sti-
2F	-ti-	.	.	2A	-sti-	1a	.
1E	-ae,	.	.	2B	-ti-	.	.
.	.	.	.	2c	.	2g	.
=54	=54	=54	=54	=54	=54	=54	=54
1.D	[Sol	0r	.	2.F	-ae,	1.a	.
.	.	.	.	4G	.	.	.
.	.	.	.	2A	.	.	.
2GG	iu-	.	.	2B	Sol	2g	.
=55	=55	=55	=55	=55	=55	=55	=55
2AA	-sti-	0r	.	2c	iu-	2f	.
2BB	-ti-	.	.	1d	-sti-	2d	.
1AA	-ae:]	.	.	.	.	1e	-ti-
.	.	.	.	2c#i	-ti-	.	.
=56	=56	=56	=56	=56	=56	=56	=56
1D	.	[0F	Chri-	1d	-ae:]	0d	-ae:
2r	.	.	.	2.D	Chri-	.	.
[2D	Chri-	.	.	.	.	.	.
.	.	.	.	4E	.	.	.
=57	=57	=57	=57	=57	=57	=57	=57
4D]	.	0F_	.	4F	.	2r	.
4E	.	.	.	4G	.	.	.
4F	.	.	.	2A	.	2.d	Chri-
4G	.	.	.	.	.	.	.
2A	.	.	.	2.D	.	.	.
.	.	.	.	.	.	4e	.
[2D	.	.	.	.	.	4f	.
.	.	.	.	4E	.	4g	.
=58	=58	=58	=58	=58	=58	=58	=58
2D]	.	0F]	.	2F	.	2.a	.
4C	.	.	.	4E	.	.	.
4BB	.	.	.	4D	.	4b	.
1AA	.	.	.	1C	.	1cc	.
=59	=59	=59	=59	=59	=59	=59	=59
1GG	-stus,	0G	-stus,	1D	-stus,	1.b	.
2r	.	.	.	[1E	.	.	.
[2C	Chri-	.	.	.	.	2g	.
=60	=60	=60	=60	=60	=60	=60	=60
4C]	.	[0E	De-	2E]	.	0g	-stus,
4D	.	.	.	.	.	.	.
4E	.	.	.	2C	.	.	.
4F	.	.	.	.	.	.	.
2G	.	.	.	1C	De-	.	.
[2C	.	.	.	.	.	.	.
=61	=61	=61	=61	=61	=61	=61	=61
2C]	.	0E]	.	1c	-us	1r	.
4BB	.	.	.	.	.	.	.
4AA	.	.	.	.	.	.	.
1GG	.	.	.	1B	.	1g	De-
=62	=62	=62	=62	=62	=62	=62	=62
1FF	-stus,	[0F	-us	2.A	no-	1.a	.
.	.	.	.	4B	.	.	.
2r	.	.	.	2c	.	.	.
[2BB-X	De-	.	.	2d	.	2f	.
=63	=63	=63	=63	=63	=63	=63	=63
4BB-]	.	0F_	.	1d	.	1f	-us
4C	.	.	.	.	.	.	.
4D	.	.	.	.	.	.	.
4E	.	.	.	.	.	.	.
2F	.	.	.	2c	.	2r	.
[2BB-i	-us	.	.	[2d	.	[2f	no-
=64	=64	=64	=64	=64	=64	=64	=64
2BB-]	.	0F]	.	2d]	.	4f]	.
.	.	.	.	.	.	4g	.
4AA	.	.	.	4c	.	4a	.
4GG	.	.	.	4B	.	4b	.
1FF	no-	.	.	1A	-ster,	2cc	.
.	.	.	.	.	.	2a	.
=65	=65	=65	=65	=65	=65	=65	=65
0C	-ster,	0E	.	2r	.	4g	.
.	.	.	.	.	.	4f	.
.	.	.	.	2G	De-	4e	.
.	.	.	.	.	.	4d	.
.	.	.	.	2G	-us	1c	.
.	.	.	.	2G	no-	.	.
=66	=66	=66	=66	=66	=66	=66	=66
2r	.	0D	no-	1B	-ster,	0d	-ster,
2GG	qui	.	.	.	.	.	.
1GG	sol-	.	.	2r	.	.	.
.	.	.	.	2d	qui	.	.
=67	=67	=67	=67	=67	=67	=67	=67
[0BB-X	-vens	0D	-ster,	2d	sol-	2r	.
.	.	.	.	2f	-vens,	2d	qui
.	.	.	.	2r	.	2d	sol-
.	.	.	.	2d	[qui	2f	-vens,
=68	=68	=68	=68	=68	=68	=68	=68
0BB-]	.	0D	qui	2d	sol-	2r	.
.	.	.	.	2f	-vens,]	2d	[qui
.	.	.	.	2r	.	2d	sol-
.	.	.	.	2F	qui	2f	-vens]
=69	=69	=69	=69	=69	=69	=69	=69
1GG	ma-	0D	sol-	4G	sol-	2r	.
.	.	.	.	4A	.	.	.
.	.	.	.	4B	.	2g	ma-
.	.	.	.	4c	.	.	.
1GG	-le-	.	.	4d	.	2g	-le-
.	.	.	.	4G	.	.	.
.	.	.	.	[2d	.	2b-X	-di-
=70	=70	=70	=70	=70	=70	=70	=70
1FF	.	0F	-vens	2d]	.	1a	-cti-
.	.	.	.	2c	.	.	.
[1BB-i	-di-	.	.	2d	-vens	2f	-o-
.	.	.	.	[2f	ma-	[2d	.
=71	=71	=71	=71	=71	=71	=71	=71
2BB-]	.	0D	ma-	2f]	.	2d]	.
2C	.	.	.	2e	-le-	2e	.
2D	.	.	.	2d	-di-	2f	.
2E	.	.	.	4c	-cti-	2g	.
.	.	.	.	4B	.	.	.
=72	=72	=72	=72	=72	=72	=72	=72
2F	.	0D	-le-	1A	.	1.a	.
2G	.	.	.	.	.	.	.
2A	.	.	.	1d	.	.	.
2B	-cti-	.	.	.	.	4g	.
.	.	.	.	.	.	4f	.
=73	=73	=73	=73	=73	=73	=73	=73
2.c	-o-	0C	.	2G	.	2e	.
.	.	.	.	1.c	-o-	1f	.
4B	.	.	.	.	.	.	.
2A	.	.	.	.	.	.	.
2G	.	.	.	.	.	2e	.
=74	=74	=74	=74	=74	=74	=74	=74
2.F	.	0F	-di-	1A	-nem,	2f	.
.	.	.	.	.	.	2.a	.
4E	.	.	.	.	.	.	.
1D	.	.	.	2r	.	.	.
.	.	.	.	.	.	4g	.
.	.	.	.	2d	ma-	4a	.
.	.	.	.	.	.	4b	.
=75	=75	=75	=75	=75	=75	=75	=75
1C	-nem	0G	-cti-	2e	-le-	2.cc	.
.	.	.	.	2c	-di-	.	.
.	.	.	.	.	.	8bL	.
.	.	.	.	.	.	8aJ	.
1r	.	.	.	1B	-cti-	1g	.
=76	=76	=76	=76	=76	=76	=76	=76
2r	.	1F	-o-	2.A	-o-	0a	-nem
2D	de-	.	.	.	.	.	.
.	.	.	.	4B	.	.	.
2AA	.	[1A	.	2c	.	.	.
[2D	.	.	.	[2F	.	.	.
=77	=77	=77	=77	=77	=77	=77	=77
4D]	.	2A]	.	4F]	.	0r	.
4C	.	.	.	4E	.	.	.
4BB	.	4G	.	4D	.	.	.
4AA	.	4F	.	4C	.	.	.
1BB	.	1G	.	2D	.	.	.
.	.	.	.	2d	.	.	.
=78	=78	=78	=78	=78	=78	=78	=78
2AA	-dit,	1A	.	2.c	.	0r	.
2A	de-	.	.	.	.	.	.
.	.	.	.	4d	.	.	.
2E	.	2B	.	2e	.	.	.
[2A	.	[2c	-nem	[2f	-nem	.	.
=79	=79	=79	=79	=79	=79	=79	=79
4A]	.	4c]	.	4f]	.	0a	de-
4G	.	4B	.	4e	.	.	.
4F	.	4A	.	4d	.	.	.
4E	.	4G	.	4c	.	.	.
1F	.	2.A	.	1d	.	.	.
.	.	4B	.	.	.	.	.
=80	=80	=80	=80	=80	=80	=80	=80
1.E	-dit	2c	.	2r	.	0g	-dit
.	.	2B	.	2e	de-	.	.
.	.	1G	.	2B	-dit	.	.
[2C	be-	.	.	[2e	be-	.	.
=81	=81	=81	=81	=81	=81	=81	=81
2C]	.	2r	.	4e]	.	[0e	be-
.	.	.	.	4d	.	.	.
2AA	.	1A	de-	4c	.	.	.
.	.	.	.	4B	.	.	.
4AA	-ne-	.	.	1c	.	.	.
4BB	.	.	.	.	.	.	.
4C	.	2A	-dit	.	.	.	.
4D	.	.	.	.	.	.	.
=82	=82	=82	=82	=82	=82	=82	=82
2E	.	2G	be-	2B	.	0e]	.
2AA	-di-	2A	-ne-	2c	-ne-	.	.
2E	-cti-	2E	-di-	2B	-di-	.	.
2AA	-o-	[2A	-cti-	2c	-cti-	.	.
=83	=83	=83	=83	=83	=83	=83	=83
1D	-nem,	4A]	.	1d	-o-	0f	-ne-
.	.	4G	.	.	.	.	.
.	.	4F	.	.	.	.	.
.	.	4E	.	.	.	.	.
2r	.	1F	.	2A	.	.	.
2D	be-	.	.	2d	.	.	.
=84	=84	=84	=84	=84	=84	=84	=84
4C	-ne-	4E	-o-	1e	.	0g	-di-
4D	.	4F	.	.	.	.	.
4E	.	4G	.	.	.	.	.
4F	.	4A	.	.	.	.	.
2G	-di-	2B	.	2d	.	.	.
2C	-cti-	2c	.	2e	.	.	.
=85	=85	=85	=85	=85	=85	=85	=85
4D	-o-	1A	-nem,	2f	.	1f	-cti-
4E	.	.	.	.	.	.	.
4F	.	.	.	1d	.	.	.
4G	.	.	.	.	.	.	.
1A	.	2r	.	.	.	1e	.
.	.	[2A	de-	2c#i	.	.	.
=86	=86	=86	=86	=86	=86	=86	=86
1D	-nem,	2A]	.	2d	-nem,	0d	-o-
.	.	2F	-dit	2A	be-	.	.
2r	.	2G	be-	2B	-ne-	.	.
2D	be-	2F	-ne-	2A	-di-	.	.
=87	=87	=87	=87	=87	=87	=87	=87
4GG	-ne-	2G	-di-	1B	-cti-	0d	-nem,
4AA	.	.	.	.	.	.	.
4BB	.	2D	-cti-	.	.	.	.
4C	.	.	.	.	.	.	.
2D	-di-	2F	-o-	2A	-o-	.	.
2GG	-cti-	2G	.	2B	.	.	.
=88	=88	=88	=88	=88	=88	=88	=88
4AA	-o-	2E	.	1c	.	0r	.
4BB	.	.	.	.	.	.	.
4C	.	1A	.	.	.	.	.
4D	.	.	.	.	.	.	.
1E	.	.	.	1B	.	.	.
.	.	2G	.	.	.	.	.
=89	=89	=89	=89	=89	=89	=89	=89
0AA	-nem,	1F	.	1A	-nem,	0c	et
.	.	1E	.	2r	.	.	.
.	.	.	.	2c	et	.	.
=90	=90	=90	=90	=90	=90	=90	=90
0r	.	1D	-nem,	2B	con-	0d	con-
.	.	.	.	2A	-fun-	.	.
.	.	2r	.	2B	.	.	.
.	.	[2D	et	2A	-dens,	.	.
=91	=91	=91	=91	=91	=91	=91	=91
2r	.	2D]	.	2r	.	0f	-fun-
1D	et	2D	con-	2d	et	.	.
.	.	1F	-fun-	2A	con-	.	.
2D	con-	.	.	[2d	-fun-	.	.
=92	=92	=92	=92	=92	=92	=92	=92
1F	-fun-	2D	-dens	2d]	.	0f	-dens
.	.	1A	mor-	2c	.	.	.
1D	-dens,	.	.	2.d	.	.	.
.	.	[2F	.	.	.	.	.
.	.	.	.	4e	.	.	.
=93	=93	=93	=93	=93	=93	=93	=93
2r	.	4F]	.	2f	.	[0c	mor-
.	.	4G	.	.	.	.	.
1AA	[et	2A	.	1e	-dens	.	.
.	.	2E	.	.	.	.	.
2AA	con-	[2A	.	2E	mor-	.	.
=94	=94	=94	=94	=94	=94	=94	=94
1C	-fun-	2A]	.	1E	-tem,	0c]	.
.	.	2G	.	.	.	.	.
1AA	-dens,]	1A	.	2r	.	.	.
.	.	.	.	2e	mor-	.	.
=95	=95	=95	=95	=95	=95	=95	=95
2r	.	1D	-tem	4f	.	0d	.
.	.	.	.	4e	.	.	.
1D	et	.	.	4d	.	.	.
.	.	.	.	4c	.	.	.
.	.	1r	.	4B	.	.	.
.	.	.	.	4A	.	.	.
2D	con-	.	.	2B	.	.	.
=96	=96	=96	=96	=96	=96	=96	=96
1F	-fun-	1r	.	1A	-tem	1c	-tem
1D	-dens	1A	do-	1d	do-	1f	do-
=97	=97	=97	=97	=97	=97	=97	=97
1E	mor-	1G	-na-	1B	.	1e	.
1F	.	2F	.	2.A	-na-	1d	-na-
.	.	[2A	.	.	.	.	.
.	.	.	.	4B	.	.	.
=98	=98	=98	=98	=98	=98	=98	=98
1E	-tem	2A]	.	2c	.	0e	-vit
.	.	4G	.	4B	.	.	.
.	.	4F	.	4A	.	.	.
2r	.	1G	.	2B	.	.	.
2E	do-	.	.	2c	.	.	.
=99	=99	=99	=99	=99	=99	=99	=99
2D	-na-	2A	-vit	2F	-vit	1f	.
2F	.	1d	no-	1A	no-	.	.
1E	.	.	.	.	.	1g	no-
.	.	2c#i	.	2G	.	.	.
=100	=100	=100	=100	=100	=100	=100	=100
1D	-vit	1d	.	1.A	.	1f	.
1AA	.	2.c	.	.	.	[1a	.
.	.	.	.	2G	.	.	.
.	.	4B	.	.	.	.	.
=101	=101	=101	=101	=101	=101	=101	=101
1.A	no-	2A	.	2F	.	1a]	.
.	.	2G	.	2E	.	.	.
.	.	2F	.	1D	-bis,	[1a	-bis
2G	.	2E	.	.	.	.	.
=102	=102	=102	=102	=102	=102	=102	=102
2F	.	1D	-bis,	0A	do-	2a]	.
2E	.	.	.	.	.	2g	.
2D	.	[1d	no-	.	.	2f	.
2C	.	.	.	.	.	2e	.
=103	=103	=103	=103	=103	=103	=103	=103
2BB	.	2d]	.	1B	-na-	[0d	.
2AA	.	2c	.	.	.	.	.
[1GG	-bis	2B	.	[1d	-vit	.	.
.	.	2A	.	.	.	.	.
=104	=104	=104	=104	=104	=104	=104	=104
1GG]	.	1.G	.	2d]	.	0d]	.
.	.	.	.	2c	.	.	.
[1G	vi-	.	.	2B	.	.	.
.	.	2F	.	2A	.	.	.
=105	=105	=105	=105	=105	=105	=105	=105
2G]	.	2E	.	1.G	no-	0r	.
2F	.	2D	.	.	.	.	.
2E	.	1C	-bis	.	.	.	.
2D	.	.	.	2F	.	.	.
=106	=106	=106	=106	=106	=106	=106	=106
2C	.	1.c	vi-	2E	.	0r	.
2BB	.	.	.	2D	.	.	.
2AA	.	.	.	[1C	-bis	.	.
2GG	.	2B	.	.	.	.	.
=107	=107	=107	=107	=107	=107	=107	=107
0FF	-tam	2A	.	1C]	.	[0f	vi-
.	.	2G	.	.	.	.	.
.	.	2F	.	1c	vi-	.	.
.	.	2E	.	.	.	.	.
=108	=108	=108	=108	=108	=108	=108	=108
0F	.	1D	-tam	1d	.	0f]	.
.	.	1A	sem-	2.c	-tam	.	.
.	.	.	.	4d	.	.	.
=109	=109	=109	=109	=109	=109	=109	=109
2.E	sem-	2B	-pi-	1e	.	[0g	-tam
.	.	1c	-ter-	.	.	.	.
4F	.	.	.	.	.	.	.
1G	.	.	.	1d	sem-	.	.
.	.	2B	.	.	.	.	.
=110	=110	=110	=110	=110	=110	=110	=110
2.C	-pi-	1c	.	2e	-pi-	0g]	.
.	.	.	.	1c	-ter-	.	.
4D	.	.	.	.	.	.	.
1E	.	1G	.	.	.	.	.
.	.	.	.	2B	.	.	.
=111	=111	=111	=111	=111	=111	=111	=111
2.AA	-ter-	1A	.	1c	-nam,	0e	sem-
4BB	.	.	.	.	.	.	.
1C	.	1G	.	2r	.	.	.
.	.	.	.	2c	vi-	.	.
=112	=112	=112	=112	=112	=112	=112	=112
2.FF	-nam,	1F	-nam,	2.A	-tam	1f	-pi-
4GG	.	.	.	4B	.	.	.
1AA	.	1r	.	1c	.	1e	.
=113	=113	=113	=113	=113	=113	=113	=113
2.D	sem-	2r	.	2.F	sem-	0d	-ter-
.	.	2A	sem-	.	.	.	.
4E	.	.	.	4G	.	.	.
1F	.	2.D	-pi-	1A	.	.	.
.	.	4E	.	.	.	.	.
=114	=114	=114	=114	=114	=114	=114	=114
2.BB-X	-pi-	2F	.	2.D	-pi-	[0dl	-nam.
.	.	1BB-X	.	.	.	.	.
4C	.	.	.	4E	.	.	.
1D	.	.	.	4F	.	.	.
.	.	.	.	4G	.	.	.
.	.	2F	.	2A	.	.	.
=115	=115	=115	=115	=115	=115	=115	=115
2.GG	-ter-	1G	.	2B-X	.	0d_	.
.	.	.	.	2G	.	.	.
4AA	.	.	.	.	.	.	.
1BB-i	.	2.F	-ter-	2.D	-ter-	.	.
.	.	4G	.	4E	.	.	.
=116	=116	=116	=116	=116	=116	=116	=116
1FF	-nam.	1A	.	4F	.	0d_	.
.	.	.	.	4G	.	.	.
.	.	.	.	2A	.	.	.
1GG	.	2.D	-nam.	1B-X	.	.	.
.	.	4E	.	.	.	.	.
=117	=117	=117	=117	=117	=117	=117	=117
00Dl	.	00Fl	.	00Al	-nam.	00d]	.
==	==	==	==	==	==	==	==
*-	*-	*-	*-	*-	*-	*-	*-
!!!system-decoration: [*]
!!!RDF**kern: i = editorial accidental
!!!RDF**kern: l = terminal long
!!!PTL: <i> New Senfl Edition: Motets for Four Voices (N-V) </i>
!!!PPR: Hollitzer Verlag
!!!PC#: Denkmäler der Tonkunst in Österreich 163.2
!!!PDT: 2022
!!!PED: Scott Lee Edwards, Stefan Gasch, and Sonja Tröster
!!!YEC: Copyright 2022 Denkmäler der Tonkunst in Österreich
!!!YEM: CC-BY-NC 4.0 (https://creativecommons.org/licenses/by-nc/4.0/legalcode)
!!!EED: Benjamin Ory
!!!EEV: 2024/2/25
!!!verovio: header true
!!!header-left: @{PTL}\n@{PED}, eds.\n@{PC#} (@{PDT})&nbsp;\n
!!!header-right:
!!!header-center: